X:19075
T:Xiraldilla (CT 396)
R:Xiraldilla
C:Tradicional
S:Msica Tradicional Asturiana, (C) Tello & Tito. Asturies, 2001.
S:http://pagina.de/MusTradAst <telloytito@asturies.org>
N:Xiraldilla, transcrita en Llamo, ayuntamiento de Riosa.
O:Llamo (Riosa)
A:Asturies
Z:Cancioneru de Torner 396
M:2/4
L:1/8
Q:1/4=160
W:Al pasar por el Cristo
W:me puse a soletrear,
W:por verte, vida ma,
W:cantar el beab.
W:
W:Estribillu:
W:Beab,
W:armate p'ac.
W:Beab, ba, ba. (Tres)
W:
W:Beeb,
W:yo me arimar.
W:Beeb, be, be. (Tres)
W:
W:Beib,
W:lo que me quieres d.
W:Beib, bi, bi. (Tres)
W:
W:Beeb,
W:no me digas que no.
W:Beob, bo, bo. (Tres)
W:
W:Beub,
W:mi amor eres t
W:Beub, bu, bu. (Tres)
K:G
|d2 g2|e2 ed|e2 f2|d2 Bc|d2 e2|c2 AB|c2 dd|BB AB|c2 dd|B2 z2|
|: d2 g2|e2 ed|e2 f2|d2 Bc|d2 e2|c2 AB|c2 d2|B2 AB|c2 d2|B2 z2 :||
